X: 3679
T: Billy Craib's
R: reel
M: 4/4
K: Dmajor
|:A2|d2 fd BdAG|FAde fdcd|eAfA gAfA|edcB A2 ge|
dAfd B2 AG|FAde f2 cd|eAfA gAce|dfec d2:|
|:A2|e2 ce Aceg|f2 df Adfa|^g2 eg efge|
[1 a^gab a2 cd|e2 ce A2 eg|fAdf Adfa|gfed c2 Bc|d2 f2 d2:|
[2 a2 ^gb a2 =ge|d2 fd BdAG|FAde fdcd|eAfA gAce|d2 c2 d2||

